apps/16/utilities-terminal.svg

<?xml version="1.0" encoding="UTF-8" standalone="no"?>
<svg
   xmlns:dc="http://purl.org/dc/elements/1.1/"
   xmlns:cc="http://creativecommons.org/ns#"
   xmlns:rdf="http://www.w3.org/1999/02/22-rdf-syntax-ns#"
   xmlns:svg="http://www.w3.org/2000/svg"
   xmlns="http://www.w3.org/2000/svg"
   xmlns:xlink="http://www.w3.org/1999/xlink"
   version="1.1"
   width="16"
   height="16"
   id="svg4060">
  <defs
     id="defs4062">
    <linearGradient
       x1="20"
       y1="26.000008"
       x2="20"
       y2="13.000008"
       id="linearGradient3965"
       xlink:href="#linearGradient3680-6-6-6-3-7-4"
       gradientUnits="userSpaceOnUse"
       gradientTransform="matrix(0.34453791,0,0,0.34453791,-0.032751,-0.124165)" />
    <linearGradient
       id="linearGradient3680-6-6-6-3-7-4">
      <stop
         id="stop3682-4-6-1-3-7-5"
         style="stop-color:#dcdcdc;stop-opacity:1"
         offset="0" />
      <stop
         id="stop3684-8-5-8-0-2-3"
         style="stop-color:#ffffff;stop-opacity:1"
         offset="1" />
    </linearGradient>
    <linearGradient
       x1="23.99999"
       y1="4.999989"
       x2="23.99999"
       y2="43"
       id="linearGradient3896"
       xlink:href="#linearGradient3924-4-8"
       gradientUnits="userSpaceOnUse"
       gradientTransform="matrix(0.2972973,0,0,0.2972973,0.86486973,0.8648672)" />
    <linearGradient
       id="linearGradient3924-4-8">
      <stop
         id="stop3926-0-4"
         style="stop-color:#ffffff;stop-opacity:1"
         offset="0" />
      <stop
         id="stop3928-6-8"
         style="stop-color:#ffffff;stop-opacity:0.23529412"
         offset="0.06316455" />
      <stop
         id="stop3930-2-1"
         style="stop-color:#ffffff;stop-opacity:0.15686275"
         offset="0.95056331" />
      <stop
         id="stop3932-9-0"
         style="stop-color:#ffffff;stop-opacity:0.39215687"
         offset="1" />
    </linearGradient>
    <linearGradient
       id="linearGradient2867-449-88-871-390-598-476-591-434-148-57-177-8-3-3-6-4-8-8-8-5-7">
      <stop
         id="stop3750-1-0-7-6-6-1-3-9-3-0"
         style="stop-color:#505050;stop-opacity:1"
         offset="0" />
      <stop
         id="stop3752-3-7-4-0-32-8-923-0-7-8"
         style="stop-color:#2b2b2b;stop-opacity:1"
         offset="0.26238" />
      <stop
         id="stop3754-1-8-5-2-7-6-7-1-9-4"
         style="stop-color:#0a0a0a;stop-opacity:1"
         offset="0.704952" />
      <stop
         id="stop3756-1-6-2-6-6-1-96-6-0-0"
         style="stop-color:#000000;stop-opacity:1"
         offset="1" />
    </linearGradient>
    <radialGradient
       cx="7.1183534"
       cy="9.9571075"
       r="12.671875"
       fx="7.1183534"
       fy="9.9571075"
       id="radialGradient4058"
       xlink:href="#linearGradient2867-449-88-871-390-598-476-591-434-148-57-177-8-3-3-6-4-8-8-8-5-7"
       gradientUnits="userSpaceOnUse"
       gradientTransform="matrix(0,3.0467483,-3.7404337,0,45.520924,-26.295845)" />
  </defs>
  <metadata
     id="metadata4065">
    <rdf:RDF>
      <cc:Work
         rdf:about="">
        <dc:format>image/svg+xml</dc:format>
        <dc:type
           rdf:resource="http://purl.org/dc/dcmitype/StillImage" />
        <dc:title />
      </cc:Work>
    </rdf:RDF>
  </metadata>
  <rect
     style="color:#000000;display:inline;overflow:visible;visibility:visible;opacity:0.9;fill:url(#radialGradient4058);fill-opacity:1;fill-rule:nonzero;stroke:none;stroke-width:0.99999994;marker:none;enable-background:accumulate"
     id="rect5505-21-7"
     y="1.4999985"
     x="1.5000014"
     ry="1"
     rx="1"
     height="13"
     width="13" />
  <rect
     style="opacity:0.3;fill:none;stroke:url(#linearGradient3896);stroke-width:1;stroke-linecap:round;stroke-linejoin:round;stroke-miterlimit:4;stroke-dasharray:none;stroke-dashoffset:0;stroke-opacity:1"
     id="rect6741-0-3"
     y="2.4999969"
     x="2.5"
     height="11"
     width="11" />
  <rect
     style="color:#000000;display:inline;overflow:visible;visibility:visible;opacity:0.7;fill:none;stroke:#000000;stroke-width:1;stroke-linecap:round;stroke-linejoin:round;stroke-miterlimit:4;stroke-dasharray:none;stroke-dashoffset:0;stroke-opacity:1;marker:none;enable-background:accumulate"
     id="rect5505-21-2-8"
     y="1.499997"
     x="1.5"
     ry="1"
     rx="1"
     height="13.000003"
     width="13.000003" />
  <path
     style="color:#000000;font-style:normal;font-variant:normal;font-weight:bold;font-stretch:normal;font-size:14.31169891px;line-height:125%;font-family:'Open Sans';-inkscape-font-specification:'Open Sans Bold';letter-spacing:0px;word-spacing:0px;display:inline;overflow:visible;visibility:visible;opacity:0.15;fill:#000000;fill-opacity:1;fill-rule:nonzero;stroke:none;marker:none;enable-background:accumulate"
     id="path4024"
     d="M 4.375,3.84375 C 3.8440075,3.83704 3.4025212,4.2509286 3.375,4.78125 3.2741896,4.836411 3.1527954,4.803541 3.0625,4.875 c -0.00827,0.00639 0.0081,0.024768 0,0.03125 -0.0046,0.00368 -0.026705,-0.00371 -0.03125,0 C 2.3582994,5.4553027 2.3404587,6.2870405 2.6875,6.96875 2.5079669,7.1526578 2.4070919,7.3992412 2.40625,7.65625 l 0,0.625 C 2.41162,8.6820965 2.6584749,9.0400364 3.03125,9.1875 3.1716666,9.247083 3.2968324,9.2439383 3.4375,9.28125 3.5568256,9.7016853 3.9380018,9.9939204 4.375,10 l 0.5,0 C 5.1061596,9.99233 5.3273155,9.903863 5.5,9.75 c 0.095375,0.445192 0.4824074,0.767719 0.9375,0.78125 l 2.59375,0 C 9.5861261,10.53755 10.006307,10.350589 10,9.7957129 L 10,8.6363636 C 10.0063,8.0814875 9.5861261,7.9936933 9.03125,8 L 6.75,8 C 6.782056,7.859265 6.8786113,7.7464812 6.875,7.59375 6.8750775,7.58376 6.875084,7.572485 6.875,7.5625 6.8722105,7.2307413 6.7773994,6.9247795 6.5625,6.625 6.5523174,6.6143518 6.5418982,6.6039326 6.53125,6.59375 6.5191976,6.5776673 6.5122826,6.5779503 6.5,6.5625 6.50148,6.531268 6.50148,6.499982 6.5,6.46875 L 6.71875,5.90625 C 6.9010933,5.4146334 6.6679927,4.8661613 6.1875,4.65625 6.0713385,4.6064862 5.9348331,4.6011159 5.8125,4.5625 5.6931744,4.1420647 5.3119982,3.8498296 4.875,3.84375 Z m 0.40625,1.75 C 4.78864,5.597 4.890012,5.640484 5,5.78125 5.039815,5.832206 5.03866,5.876091 5.0625,5.9375 l -0.1875,0 -0.09375,0.875 C 4.6266373,6.9108214 4.5017367,6.9373044 4.5,6.9375 L 4.4375,6.375 Z M 4.75,6.9375 l 0.0625,0.5 -0.375,0.75 C 4.472147,8.2044076 4.4123317,8.2004161 4.3125,8.09375 4.2772147,8.0560491 4.2793141,7.9963015 4.25,7.9375 l 0.125,0 0.09375,-0.875 C 4.5740087,6.9976164 4.7021241,6.9438801 4.75,6.9375 Z" />
  <path
     style="color:#000000;font-style:normal;font-variant:normal;font-weight:bold;font-stretch:normal;font-size:14.31169891px;line-height:125%;font-family:'Open Sans';-inkscape-font-specification:'Open Sans Bold';letter-spacing:0px;word-spacing:0px;display:inline;overflow:visible;visibility:visible;opacity:0.3;fill:#000000;fill-opacity:1;fill-rule:nonzero;stroke:none;marker:none;enable-background:accumulate"
     id="path3987-0-6"
     d="m 4.360002,4.8400002 0,0.52 c -0.282763,0.027014 -0.479124,0.1101469 -0.69875,0.2924997 -0.315222,0.243626 -0.329103,0.720503 -0.0975,1.02375 0.223939,0.27171 0.47124,0.397251 0.79625,0.52 l 0,0.73125 c -0.362391,-0.0296 -0.613209,-0.111423 -0.9425,-0.26 l 0,0.60125 c 0.329595,0.139857 0.584205,0.204243 0.9425,0.21125 l 0,0.52 0.52,0 0,-0.52 c 0.219319,-0.01971 0.358306,-0.07518 0.5525,-0.17875 0.269774,-0.132446 0.466997,-0.405565 0.455,-0.69875 0.0011,-0.141751 -0.04581,-0.288807 -0.13,-0.40625 -0.225225,-0.300541 -0.537697,-0.415502 -0.8775,-0.5525 l 0,-0.715 c 0.269418,0.02191 0.448797,0.0959 0.69875,0.195 l 0.24375,-0.5525 C 5.503328,5.4345152 5.227974,5.3580486 4.880002,5.3437502 l 0,-0.50375 z m 0,1.1212497 0,0.5525 c -0.137175,-0.06033 -0.21749,-0.152682 -0.21125,-0.325 -0.0064,-0.162659 0.07238,-0.211858 0.21125,-0.2275 z m 0.52,1.365 c 0.136046,0.06639 0.240684,0.135734 0.24375,0.30875 0.0078,0.17655 -0.08974,0.239476 -0.24375,0.26 z m 1.56,1.67375 0,1.0000021 2.6,0 0,-1.0000021 z" />
  <path
     style="color:#000000;font-style:normal;font-variant:normal;font-weight:bold;font-stretch:normal;font-size:14.31169891px;line-height:125%;font-family:'Open Sans';-inkscape-font-specification:'Open Sans Bold';letter-spacing:0px;word-spacing:0px;display:inline;overflow:visible;visibility:visible;fill:url(#linearGradient3965);fill-opacity:1;fill-rule:nonzero;stroke:none;marker:none;enable-background:accumulate"
     id="path3987-0"
     d="m 4.360002,3.8399985 0,0.52 c -0.282763,0.027014 -0.479124,0.1101469 -0.69875,0.2924997 -0.315222,0.243626 -0.329103,0.720503 -0.0975,1.02375 0.223939,0.27171 0.47124,0.397251 0.79625,0.52 l 0,0.73125 c -0.362391,-0.0296 -0.613209,-0.111423 -0.9425,-0.26 l 0,0.60125 c 0.329595,0.139857 0.584205,0.204243 0.9425,0.21125 l 0,0.52 0.52,0 0,-0.52 c 0.219319,-0.01971 0.358306,-0.07518 0.5525,-0.17875 0.269774,-0.132446 0.466997,-0.405565 0.455,-0.69875 0.0011,-0.141751 -0.04581,-0.288807 -0.13,-0.40625 -0.225225,-0.300541 -0.537697,-0.415502 -0.8775,-0.5525 l 0,-0.715 c 0.269418,0.02191 0.448797,0.0959 0.69875,0.195 l 0.24375,-0.5525 C 5.503328,4.4345135 5.227974,4.3580469 4.880002,4.3437485 l 0,-0.50375 z m 0,1.1212497 0,0.5525 c -0.137175,-0.06033 -0.21749,-0.152682 -0.21125,-0.325 -0.0064,-0.162659 0.07238,-0.211858 0.21125,-0.2275 z m 0.52,1.365 c 0.136046,0.06639 0.240684,0.135734 0.24375,0.30875 0.0078,0.17655 -0.08974,0.239476 -0.24375,0.26 z m 1.56,1.67375 0,1.0000017 2.6,0 0,-1.0000017 z" />
</svg>

<svg xmlns="http://www.w3.org/2000/svg" xmlns:xlink="http://www.w3.org/1999/xlink" viewBox="0 0 16 16"><defs><linearGradient x1="20" y1="26" x2="20" y2="13" id="f" xlink:href="#a" gradientUnits="userSpaceOnUse" gradientTransform="translate(-.033 -.124) scale(.34454)"/><linearGradient id="a"><stop offset="0" stop-color="#dcdcdc"/><stop offset="1" stop-color="#fff"/></linearGradient><linearGradient x1="24" y1="5" x2="24" y2="43" id="e" xlink:href="#b" gradientUnits="userSpaceOnUse" gradientTransform="translate(.865 .865) scale(.2973)"/><linearGradient id="b"><stop offset="0" stop-color="#fff"/><stop offset=".063" stop-color="#fff" stop-opacity=".235"/><stop offset=".951" stop-color="#fff" stop-opacity=".157"/><stop offset="1" stop-color="#fff" stop-opacity=".392"/></linearGradient><linearGradient id="c"><stop offset="0" stop-color="#505050"/><stop offset=".262" stop-color="#2b2b2b"/><stop offset=".705" stop-color="#0a0a0a"/><stop offset="1"/></linearGradient><radialGradient cx="7.118" cy="9.957" r="12.672" fx="7.118" fy="9.957" id="d" xlink:href="#c" gradientUnits="userSpaceOnUse" gradientTransform="matrix(0 3.04675 -3.74043 0 45.52 -26.296)"/></defs><rect y="1.5" x="1.5" ry="1" rx="1" height="13" width="13" color="#000" overflow="visible" opacity=".9" fill="url(#d)"/><path opacity=".3" fill="none" stroke="url(#e)" stroke-linecap="round" stroke-linejoin="round" d="M2.5 2.5h11v11h-11z"/><rect y="1.5" x="1.5" ry="1" rx="1" height="13" width="13" color="#000" overflow="visible" opacity=".7" fill="none" stroke="#000" stroke-linecap="round" stroke-linejoin="round"/><path style="line-height:125%;-inkscape-font-specification:'Open Sans Bold'" d="M4.375 3.844a.99.99 0 0 0-1 .937c-.1.06-.222.03-.313.1-.008.01.01.03 0 .03-.004.01-.026 0-.03 0-.674.55-.692 1.38-.345 2.07a.99.99 0 0 0-.28.69v.626a.99.99 0 0 0 .624.91c.15.06.27.055.41.09.12.42.5.715.94.72h.5a.99.99 0 0 0 .63-.25.99.99 0 0 0 .94.78h2.59c.56.01.98-.18.97-.733V8.64c.01-.555-.41-.642-.97-.636H6.75c.032-.14.13-.254.125-.406v-.032a1.58 1.58 0 0 0-.313-.937.99.99 0 0 0-.03-.03c-.013-.02-.02-.02-.032-.04v-.09l.22-.57a.99.99 0 0 0-.532-1.25c-.117-.05-.253-.055-.375-.093a.99.99 0 0 0-.938-.72zm.406 1.75c.01.003.11.046.22.187.04.06.04.1.07.16h-.19l-.09.88a.933.933 0 0 1-.28.13l-.06-.56zm-.03 1.343l.07.5-.37.75c.037.017-.023.013-.122-.093-.036-.038-.034-.098-.063-.156h.127l.094-.875a.954.954 0 0 1 .28-.125z" color="#000" font-weight="700" font-size="14.312" font-family="Open Sans" letter-spacing="0" word-spacing="0" overflow="visible" opacity=".15"/><path style="line-height:125%;-inkscape-font-specification:'Open Sans Bold'" d="M4.36 4.84v.52c-.283.027-.48.11-.7.292-.314.244-.328.72-.096 1.024.224.272.47.398.796.52v.73c-.362-.028-.613-.11-.942-.26v.603c.33.14.584.2.942.21V9h.52v-.52a1.3 1.3 0 0 0 .553-.18c.27-.13.466-.404.455-.698a.7.7 0 0 0-.13-.406c-.226-.3-.538-.415-.878-.552V5.93c.27.02.45.095.7.194l.243-.553a2.515 2.515 0 0 0-.943-.22v-.51zm0 1.12v.554c-.137-.06-.217-.153-.21-.325-.008-.17.07-.22.21-.23zm.52 1.366c.136.067.24.136.244.31.008.176-.09.238-.244.26zM6.44 9v1h2.6V9z" color="#000" font-weight="700" font-size="14.312" font-family="Open Sans" letter-spacing="0" word-spacing="0" overflow="visible" opacity=".3"/><path style="line-height:125%;-inkscape-font-specification:'Open Sans Bold'" d="M4.36 3.84v.52c-.283.027-.48.11-.7.292-.314.244-.328.72-.096 1.024.224.272.47.397.796.52v.73c-.362-.028-.613-.11-.942-.26v.603c.33.14.584.2.942.21V8h.52v-.52a1.3 1.3 0 0 0 .553-.18c.27-.13.466-.404.455-.698a.7.7 0 0 0-.13-.406c-.226-.3-.538-.415-.878-.552V4.93c.27.02.45.095.7.194l.243-.553a2.515 2.515 0 0 0-.943-.22v-.51zm0 1.12v.554c-.137-.06-.217-.153-.21-.325-.008-.17.07-.22.21-.23zm.52 1.366c.136.067.24.136.244.31.008.176-.09.238-.244.26zM6.44 8v1h2.6V8z" color="#000" font-weight="700" font-size="14.312" font-family="Open Sans" letter-spacing="0" word-spacing="0" overflow="visible" fill="url(#f)"/></svg>
